X: 10
T: Flowers of Edinburgh, The $1(R-14)
I: Flowers of Edinburgh, The	R-14	G	reel
M: C|
R: reel
K: G
GE| "G"D2DE G2GA| BGBd cBAG| "D"FGEF DEFG| "D7"AFdF E2GE|
    "G"D2DE G2GA| BGBd "C"efge| "G"dcBA "D"GFGA| "G"B2G2 G2 :|
|:ef| "G"g2gf gbag| "D"f2fe fagf| "C"edef gfed| "Em"B2e2 e2ge|
    "G"dBGB d2Bd| "C"edef g2fe| "G"dcBA "D"GFGA| "G"B2G2 G2 :|

